email.svg

<svg height="14.53" viewBox="0 0 20 14.53" width="20" xmlns="http://www.w3.org/2000/svg"><path d="m18.2 14.53h-16.4a1.79 1.79 0 0 1 -1.8-1.8v-10.93a1.79 1.79 0 0 1 1.8-1.8h16.4a1.79 1.79 0 0 1 1.8 1.8v10.93a1.79 1.79 0 0 1 -1.8 1.8zm-1-1.82-5.2-4.56-2 1.85-2.09-1.85-5.2 4.56zm-15.45-.89 5.1-4.57-5.1-4.56zm1-10 7.25 6.33 7.27-6.37zm15.49.91-5.17 4.52 5.13 4.57v-9.13z"/></svg>

<svg xmlns="http://www.w3.org/2000/svg" width="20" height="14.53" viewBox="0 0 20 14.53"><title>email</title><path d="M18.2,14.53H1.8A1.79,1.79,0,0,1,0,12.73V1.8A1.79,1.79,0,0,1,1.8,0H18.2A1.79,1.79,0,0,1,20,1.8V12.73A1.79,1.79,0,0,1,18.2,14.53Zm-1-1.82L12,8.15,10,10,7.91,8.15l-5.2,4.56ZM1.75,11.82l5.1-4.57L1.75,2.69v9.13Zm1-10L10,8.15l7.27-6.37Zm15.49.91L13.07,7.25l5.13,4.57V2.69Z"/></svg>
